packages/kaspersky-hexa-ui-icons/src/iconsSVGs/16x12/FlagMd.svg

<svg width="16" height="12" viewBox="0 0 16 12" fill="none" xmlns="http://www.w3.org/2000/svg">
<g clip-path="url(#clip0_41818_3253)">
<rect width="16" height="12" rx="2" fill="white"/>
<mask id="mask0_41818_3253" style="mask-type:luminance" maskUnits="userSpaceOnUse" x="0" y="0" width="16" height="12">
<rect width="16" height="12" rx="2" fill="white"/>
</mask>
<g mask="url(#mask0_41818_3253)">
<rect x="7.61902" width="8.38095" height="12" fill="#EB1C43"/>
<path fill-rule="evenodd" clip-rule="evenodd" d="M0 12H5.33333V0H0V12Z" fill="#115BCB"/>
<path fill-rule="evenodd" clip-rule="evenodd" d="M5.33337 12H10.6667V0H5.33337V12Z" fill="#FFD953"/>
<path d="M8.38086 4.7998H9.14258V7.2002L8 8L6.85742 7.2002V4.7998H7.61914L8 3.59961L8.38086 4.7998ZM7.61914 5.59961V6.7998H8.38086V5.59961H7.61914Z" fill="#AF7F59"/>
</g>
</g>
<defs>
<clipPath id="clip0_41818_3253">
<rect width="16" height="12" fill="white"/>
</clipPath>
</defs>
</svg>

<svg xmlns="http://www.w3.org/2000/svg" width="16" height="12" fill="none" viewBox="0 0 16 12"><g clip-path="url(#a)"><rect width="16" height="12" fill="#fff" rx="2"/><mask id="b" width="16" height="12" x="0" y="0" maskUnits="userSpaceOnUse" style="mask-type:luminance"><rect width="16" height="12" fill="#fff" rx="2"/></mask><g mask="url(#b)"><path fill="#eb1c43" d="M7.619 0H16v12H7.619z"/><path fill="#115bcb" fill-rule="evenodd" d="M0 12h5.3333V0H0z" clip-rule="evenodd"/><path fill="#ffd953" fill-rule="evenodd" d="M5.3334 12h5.3333V0H5.3334z" clip-rule="evenodd"/><path fill="#af7f59" d="M8.3809 4.7998h.7617v2.4004L8 8l-1.1426-.7998V4.7998h.7617L8 3.5996zm-.7618.7998v1.2002h.7618V5.5996z"/></g></g><defs><clipPath id="a"><path fill="#fff" d="M0 0h16v12H0z"/></clipPath></defs></svg>
